en/_assets/smartwebsecurity/disconnect.svg

<svg xmlns="http://www.w3.org/2000/svg" xmlns:xlink="http://www.w3.org/1999/xlink" width="16" height="16" class="yc-icon" fill="currentColor" stroke="none" aria-hidden="true"><svg viewBox="0 0 18 16" xmlns="http://www.w3.org/2000/svg"><path fill-rule="evenodd" d="M7 6.5L7 4.029L2.72381 7.5277C2.58216 7.6436 2.5 7.81697 2.5 8C2.5 8.18303 2.58215 8.3564 2.72381 8.4723L7 11.971L7 9.5L10.25 9.5C10.3881 9.5 10.5 9.38807 10.5 9.25L10.5 6.75C10.5 6.61193 10.3881 6.5 10.25 6.5L7 6.5ZM12 9.25L12 6.75C12 6.74954 12 6.74909 12 6.74863C11.9993 5.78276 11.216 5 10.25 5L8.5 5L8.5 3.97388C8.5 3.15988 7.84012 2.5 7.02612 2.5C6.68589 2.5 6.35613 2.61771 6.09281 2.83316L1.77396 6.36676C1.28409 6.76756 1 7.36707 1 8C1 8.63293 1.2841 9.23244 1.77396 9.63324L6.09281 13.1668C6.35613 13.3823 6.68589 13.5 7.02612 13.5C7.84012 13.5 8.5 12.8401 8.5 12.0261L8.5 11L10.25 11C11.2165 11 12 10.2165 12 9.25ZM13.5 1.75C13.5 1.33579 13.8358 1 14.25 1C14.6642 1 15 1.33579 15 1.75L15 14.25C15 14.6642 14.6642 15 14.25 15C13.8358 15 13.5 14.6642 13.5 14.25L13.5 1.75Z" fill="currentColor"></path></svg></svg>

<svg xmlns="http://www.w3.org/2000/svg" width="16" height="16" fill="currentColor" aria-hidden="true" class="yc-icon"><svg xmlns="http://www.w3.org/2000/svg" viewBox="0 0 18 16"><path fill-rule="evenodd" d="M7 6.5V4.029L2.724 7.528a.61.61 0 0 0 0 .944L7 11.971V9.5h3.25a.25.25 0 0 0 .25-.25v-2.5a.25.25 0 0 0-.25-.25H7Zm5 2.75V6.749A1.75 1.75 0 0 0 10.25 5H8.5V3.974a1.474 1.474 0 0 0-2.407-1.14L1.774 6.366a2.11 2.11 0 0 0 0 3.266l4.319 3.534a1.474 1.474 0 0 0 2.407-1.14V11h1.75A1.75 1.75 0 0 0 12 9.25Zm1.5-7.5a.75.75 0 0 1 1.5 0v12.5a.75.75 0 0 1-1.5 0V1.75Z"/></svg></svg>
